packages/foundations/assets/icons/functional/images/transportation/train_and_car_24.svg

<svg width="24" height="24" viewBox="0 0 24 24" fill="none" xmlns="http://www.w3.org/2000/svg">
<g clip-path="url(#clip0_187_986)">
<path fill-rule="evenodd" clip-rule="evenodd" d="M10.0813 2C12.2523 2 13.5103 2.756 14.4813 4.041C15.3713 5.218 15.8963 6.625 15.9943 8.089L16.0213 9.128C16.0213 9.596 15.6413 9.976 15.1733 9.976C14.7053 9.976 14.3253 9.597 14.3253 9.128L14.3103 8.446C14.2793 7.225 13.8663 6.044 13.1263 5.066C12.4383 4.157 11.6673 3.7 10.0823 3.704L8.03634 3.7C6.51734 3.7 5.66734 4.113 4.94734 5.066C4.26434 5.969 3.85934 7.045 3.77734 8.165L3.70434 10.788C3.67334 11.999 3.77034 13.209 3.99134 14.398L5.51034 15.446L6.49534 16.099C6.66434 16.186 7.03734 16.265 7.29634 16.311C7.69234 16.388 7.99734 16.72 7.99734 17.139C7.99734 17.615 7.61134 18 7.13634 18C7.09634 18 7.00334 17.993 6.99234 17.991C6.39334 17.9 5.92334 17.753 5.57534 17.529L4.58034 16.87C4.67534 17.31 4.83334 17.727 5.05534 18.121C5.38834 18.713 5.81234 19.31 6.60734 19.293C6.75534 19.29 6.99209 19.2882 7.28434 19.2875L8.07528 19.2875L8.29434 19.288L8.40355 19.2949C8.825 19.3484 9.15134 19.7083 9.15134 20.144L9.14934 21.138C9.15034 21.617 8.76634 22 8.29334 22H6.03434C5.56534 22 5.18434 21.619 5.18434 21.15C5.18434 20.993 5.22634 20.845 5.30134 20.719C4.66734 20.428 4.43534 20.187 4.01234 19.632C3.58934 19.077 3.25034 18.402 3.08634 17.854C2.92234 17.306 2.96234 17.407 2.58234 15.908C2.20234 14.408 2.00634 12.87 1.99834 11.325C1.99334 10.295 2.01434 9.321 2.06334 8.403C2.10234 6.827 2.63634 5.302 3.59034 4.041C4.51734 2.815 5.77534 2 8.03534 2.005L10.0813 2ZM16.1832 10.9759L16.3263 10.976L17.2708 10.9765L17.3943 10.977L18.0138 10.9775C18.279 10.9783 18.4817 10.9792 18.5933 10.98C19.2893 10.986 19.9773 11.543 20.1353 12.168C20.2413 12.585 20.4663 13.598 20.8103 15.206L21.0023 15.871H21.0203C21.5743 15.928 22.0023 16.394 22.0023 16.959V17.209C22.0023 17.727 21.6443 18.16 21.1633 18.276C21.1153 18.718 21.0793 18.999 21.0563 19.121C21.0443 19.181 21.0293 19.243 21.0113 19.308C21.0143 19.34 21.0153 19.374 21.0153 19.407V20.874C21.0153 21.482 20.5223 21.974 19.9153 21.974H19.7013C19.0943 21.974 18.6013 21.482 18.6013 20.874L18.4883 20.909C17.5203 21.055 16.5523 21.128 15.5843 21.128C14.6163 21.128 13.6483 21.055 12.6803 20.909L12.5663 20.866C12.5663 21.482 12.0733 21.974 11.4663 21.974H11.2523C10.6443 21.974 10.1523 21.482 10.1523 20.874V19.407L10.1563 19.311C10.1533 19.302 10.1503 19.293 10.1483 19.284C10.1193 19.178 10.0743 18.851 10.0113 18.304L10.0973 18.307C9.49134 18.307 9.00034 17.816 9.00034 17.21V16.96C9.00034 16.354 9.49134 15.863 10.0973 15.863L10.1603 15.866L10.3523 15.205L10.9833 12.301C11.1813 11.62 11.7653 10.975 12.7143 10.975L16.1832 10.9759ZM16.1273 18.676H15.0333C14.7293 18.676 14.4833 18.922 14.4833 19.226C14.4833 19.53 14.7293 19.776 15.0333 19.776H16.1273C16.4313 19.776 16.6773 19.53 16.6773 19.226C16.6773 18.922 16.4313 18.676 16.1273 18.676ZM11.3983 17.38L11.3953 17.391C11.3093 17.713 11.5003 18.043 11.8213 18.13L12.9843 18.446C13.3113 18.532 13.6433 18.339 13.7283 18.016L13.7313 18.005C13.8163 17.683 13.6263 17.353 13.3053 17.266L12.1423 16.95C11.8153 16.864 11.4833 17.057 11.3983 17.38ZM19.0213 16.95L17.8543 17.266C17.5333 17.354 17.3433 17.683 17.4283 18.005L17.4313 18.016C17.5173 18.339 17.8483 18.532 18.1713 18.446L19.3383 18.13C19.6593 18.042 19.8493 17.713 19.7643 17.391L19.7613 17.38C19.6753 17.057 19.3443 16.865 19.0213 16.95ZM18.6983 12.476H12.4313L11.6573 15.865H19.4843L18.6983 12.476ZM6.15534 12.741C6.54334 12.547 7.00834 12.678 7.24234 13.029L7.79634 14.121C8.00634 14.541 7.83634 15.051 7.41634 15.261C7.02834 15.455 6.56334 15.324 6.32934 14.973L5.77534 13.881C5.56534 13.462 5.73534 12.951 6.15534 12.741ZM9.03634 5.001C9.83934 5.001 10.5283 5.094 11.1043 5.279C12.3213 5.671 13.0463 6.918 12.7853 8.169L12.5103 9.487C12.3423 10.297 11.6913 10.92 10.8753 11.053C10.1333 11.185 9.52034 11.251 9.03634 11.251C8.55234 11.251 7.93934 11.185 7.19734 11.053C6.38134 10.919 5.73134 10.297 5.56234 9.487L5.28734 8.169C5.02634 6.917 5.75134 5.671 6.96834 5.279C7.54434 5.094 8.23334 5.001 9.03634 5.001ZM9.03534 6.702C8.39934 6.702 7.88234 6.771 7.48834 6.898C7.13434 7.012 6.91034 7.352 6.93534 7.714C7.06634 8.385 7.15334 8.808 7.19634 8.982C7.25934 9.244 7.29434 9.348 7.46934 9.377C7.64434 9.406 8.50734 9.549 9.03434 9.553C9.56134 9.556 10.1493 9.44 10.4883 9.397C10.8283 9.354 10.8283 9.171 10.8743 8.983C10.9053 8.857 10.9873 8.471 11.1203 7.823C11.2043 7.422 10.9713 7.023 10.5823 6.898C10.1883 6.771 9.67134 6.702 9.03534 6.702Z" fill="#1A1C1F"/>
</g>
<defs>
<clipPath id="clip0_187_986">
<rect width="24" height="24" fill="white"/>
</clipPath>
</defs>
</svg>

<svg xmlns="http://www.w3.org/2000/svg" width="24" height="24" fill="none"><g clip-path="url(#a)"><path fill="#1A1C1F" fill-rule="evenodd" d="M10.081 2c2.171 0 3.43.756 4.4 2.041a7.55 7.55 0 0 1 1.513 4.048l.027 1.039a.848.848 0 0 1-1.696 0l-.015-.682a5.85 5.85 0 0 0-1.184-3.38c-.688-.909-1.459-1.366-3.044-1.362L8.036 3.7c-1.519 0-2.369.413-3.089 1.366a5.84 5.84 0 0 0-1.17 3.099l-.073 2.623a17.3 17.3 0 0 0 .287 3.61l1.52 1.048.984.653c.17.087.542.166.801.212a.85.85 0 0 1 .701.828.86.86 0 0 1-.86.861c-.04 0-.134-.007-.145-.009-.599-.091-1.069-.238-1.417-.462l-.995-.659q.142.66.475 1.251c.333.592.757 1.189 1.552 1.172.148-.003.385-.005.677-.005h1.011l.109.007a.86.86 0 0 1 .747.849l-.002.994a.856.856 0 0 1-.856.862H6.034a.85.85 0 0 1-.733-1.281c-.634-.291-.866-.532-1.289-1.087a6 6 0 0 1-.926-1.778c-.164-.548-.124-.447-.504-1.946-.38-1.5-.576-3.038-.584-4.583q-.008-1.545.065-2.922A7.54 7.54 0 0 1 3.59 4.041C4.517 2.815 5.775 2 8.035 2.005zm6.102 8.976h1.088l.123.001h.62l.58.003c.695.006 1.383.563 1.541 1.188q.159.626.675 3.038l.192.665h.018c.554.057.982.523.982 1.088v.25c0 .518-.358.951-.839 1.067q-.072.663-.107.845-.018.09-.045.187.004.049.004.099v1.467a1.1 1.1 0 0 1-1.1 1.1h-.214a1.1 1.1 0 0 1-1.1-1.1l-.113.035a19.5 19.5 0 0 1-5.808 0l-.114-.043c0 .616-.493 1.108-1.1 1.108h-.214a1.1 1.1 0 0 1-1.1-1.1v-1.467l.004-.096-.008-.027q-.043-.16-.137-.98l.086.003A1.097 1.097 0 0 1 9 17.21v-.25c0-.606.491-1.097 1.097-1.097l.063.003.192-.661.631-2.904c.198-.681.782-1.326 1.731-1.326zm-.056 7.7h-1.094a.55.55 0 1 0 0 1.1h1.094a.55.55 0 1 0 0-1.1m-4.729-1.296-.003.011a.604.604 0 0 0 .426.739l1.163.316a.607.607 0 0 0 .744-.43l.003-.011a.605.605 0 0 0-.426-.739l-1.163-.316a.607.607 0 0 0-.744.43m7.623-.43-1.167.316a.605.605 0 0 0-.426.739l.003.011a.605.605 0 0 0 .74.43l1.167-.316a.605.605 0 0 0 .426-.739l-.003-.011a.606.606 0 0 0-.74-.43m-.323-4.474h-6.267l-.774 3.389h7.827zm-12.543.265a.85.85 0 0 1 1.087.288l.554 1.092a.85.85 0 0 1-1.467.852l-.554-1.092a.85.85 0 0 1 .38-1.14m2.881-7.74q1.204 0 2.068.278a2.5 2.5 0 0 1 1.681 2.89l-.275 1.318a2 2 0 0 1-1.635 1.566q-1.113.198-1.839.198t-1.839-.198a2 2 0 0 1-1.635-1.566l-.275-1.318a2.5 2.5 0 0 1 1.681-2.89q.864-.278 2.068-.278m0 1.701c-.637 0-1.154.069-1.548.196a.8.8 0 0 0-.553.816q.197 1.007.261 1.268c.063.262.098.366.273.395s1.038.172 1.565.176c.527.003 1.115-.113 1.454-.156.34-.043.34-.226.386-.414q.047-.188.246-1.16a.8.8 0 0 0-.538-.925c-.394-.127-.91-.196-1.547-.196" clip-rule="evenodd"/></g><defs><clipPath id="a"><path fill="#fff" d="M0 0h24v24H0z"/></clipPath></defs></svg>
